X:972
T:Reel 972
M:4/4
K:Dmix
L:1/8
AG|F<DDC A,DDE|FDDF A2AG|FEFD ADDF|EDCE G2:|FG|AEFG ABAG|FEFG Addc|ABAG FGAG|FDEC D2AG|FEFG ABAG|FDFE F2FG|ABce dcAF|EDCE G2|
